svgs/regular/grid-4.svg

<svg xmlns="http://www.w3.org/2000/svg" viewBox="0 0 448 512"><!--! Font Awesome Pro 6.6.0 by @fontawesome - https://fontawesome.com License - https://fontawesome.com/license (Commercial License) Copyright 2024 Fonticons, Inc. --><path d="M32 89.6L32 64l25.6 0 0 25.6L32 89.6zm57.6 16l0-57.6c0-8.8-7.2-16-16-16L16 32C7.2 32 0 39.2 0 48l0 57.6c0 6.3 3.7 11.8 9 14.4c2.1 1 4.5 1.6 7 1.6l57.6 0c2.5 0 4.9-.6 7-1.6c5.3-2.6 9-8.1 9-14.4zm-16 45.9l-57.6 0c-2.5 0-4.9 .6-7 1.6c-5.3 2.6-9 8.1-9 14.4l0 57.6c0 6.3 3.7 11.8 9 14.4c2.1 1 4.5 1.6 7 1.6l57.6 0c2.5 0 4.9-.6 7-1.6c5.3-2.6 9-8.1 9-14.4l0-57.6c0-6.3-3.7-11.8-9-14.4c-2.1-1-4.5-1.6-7-1.6zm0 119.5l-57.6 0c-2.5 0-4.9 .6-7 1.6c-5.3 2.6-9 8.1-9 14.4l0 57.6c0 6.3 3.7 11.8 9 14.4c2.1 1 4.5 1.6 7 1.6l57.6 0c2.5 0 4.9-.6 7-1.6c5.3-2.6 9-8.1 9-14.4l0-57.6c0-6.3-3.7-11.8-9-14.4c-2.1-1-4.5-1.6-7-1.6zM16 390.4c-2.5 0-4.9 .6-7 1.6c-5.3 2.6-9 8.1-9 14.4L0 464c0 8.8 7.2 16 16 16l57.6 0c8.8 0 16-7.2 16-16l0-57.6c0-6.3-3.7-11.8-9-14.4c-2.1-1-4.5-1.6-7-1.6l-57.6 0zM32 209.1l0-25.6 25.6 0 0 25.6-25.6 0zm0 119.5l0-25.6 25.6 0 0 25.6-25.6 0zM32 448l0-25.6 25.6 0 0 25.6L32 448zM151.5 89.6l0-25.6 25.6 0 0 25.6-25.6 0zm57.6 16l0-57.6c0-8.8-7.2-16-16-16l-57.6 0c-8.8 0-16 7.2-16 16l0 57.6c0 6.3 3.7 11.8 9 14.4c2.1 1 4.5 1.6 7 1.6l57.6 0s0 0 0 0c2.5 0 4.9-.6 7-1.6c5.3-2.6 9-8.1 9-14.4zm-16 45.9s0 0 0 0l-57.6 0c-2.5 0-4.9 .6-7 1.6c-5.3 2.6-9 8.1-9 14.4l0 57.6c0 6.3 3.7 11.8 9 14.4c2.1 1 4.5 1.6 7 1.6l57.6 0c2.5 0 4.9-.6 7-1.6c5.3-2.6 9-8.1 9-14.4l0-57.6c0-6.3-3.7-11.8-9-14.4c-2.1-1-4.5-1.6-7-1.6zm0 119.5l-57.6 0c-2.5 0-4.9 .6-7 1.6c-5.3 2.6-9 8.1-9 14.4l0 57.6c0 6.3 3.7 11.8 9 14.4c2.1 1 4.5 1.6 7 1.6l57.6 0c2.5 0 4.9-.6 7-1.6c5.3-2.6 9-8.1 9-14.4l0-57.6c0-6.3-3.7-11.8-9-14.4c-2.1-1-4.5-1.6-7-1.6zM135.5 390.4c-2.5 0-4.9 .6-7 1.6c-5.3 2.6-9 8.1-9 14.4l0 57.6c0 8.8 7.2 16 16 16l57.6 0c8.8 0 16-7.2 16-16l0-57.6c0-6.3-3.7-11.8-9-14.4c-2.1-1-4.5-1.6-7-1.6l-57.6 0zm16-181.3l0-25.6 25.6 0 0 25.6-25.6 0zm0 119.5l0-25.6 25.6 0 0 25.6-25.6 0zm0 119.5l0-25.6 25.6 0 0 25.6-25.6 0zM270.9 64l25.6 0 0 25.6-25.6 0 0-25.6zm48.6 56c5.3-2.6 9-8.1 9-14.4l0-57.6c0-8.8-7.2-16-16-16l-57.6 0c-8.8 0-16 7.2-16 16l0 57.6c0 6.3 3.7 11.8 9 14.4c2.1 1 4.5 1.6 7 1.6c0 0 0 0 0 0l57.6 0s0 0 0 0c2.5 0 4.9-.6 7-1.6zm0 33.1c-2.1-1-4.5-1.6-7-1.6c0 0 0 0 0 0l-57.6 0s0 0 0 0c-2.5 0-4.9 .6-7 1.6c-5.3 2.6-9 8.1-9 14.4l0 57.6c0 6.3 3.7 11.8 9 14.4c2.1 1 4.5 1.6 7 1.6l57.6 0c2.5 0 4.9-.6 7-1.6c5.3-2.6 9-8.1 9-14.4l0-57.6c0-6.3-3.7-11.8-9-14.4zm0 119.5c-2.1-1-4.5-1.6-7-1.6l-57.6 0c-2.5 0-4.9 .6-7 1.6c-5.3 2.6-9 8.1-9 14.4l0 57.6c0 6.3 3.7 11.8 9 14.4c2.1 1 4.5 1.6 7 1.6l57.6 0c2.5 0 4.9-.6 7-1.6c5.3-2.6 9-8.1 9-14.4l0-57.6c0-6.3-3.7-11.8-9-14.4zm-7 117.8l-57.6 0c-2.5 0-4.9 .6-7 1.6c-5.3 2.6-9 8.1-9 14.4l0 57.6c0 8.8 7.2 16 16 16l57.6 0c8.8 0 16-7.2 16-16l0-57.6c0-6.3-3.7-11.8-9-14.4c-2.1-1-4.5-1.6-7-1.6zM270.9 183.5l25.6 0 0 25.6-25.6 0 0-25.6zm0 119.5l25.6 0 0 25.6-25.6 0 0-25.6zm0 119.5l25.6 0 0 25.6-25.6 0 0-25.6zM390.4 89.6l0-25.6L416 64l0 25.6-25.6 0zm57.6 16L448 48c0-8.8-7.2-16-16-16l-57.6 0c-8.8 0-16 7.2-16 16l0 57.6c0 6.3 3.7 11.8 9 14.4c2.1 1 4.5 1.6 7 1.6c0 0 0 0 0 0l57.6 0s0 0 0 0c2.5 0 4.9-.6 7-1.6c5.3-2.6 9-8.1 9-14.4zm-16 45.9s0 0 0 0l-57.6 0s0 0 0 0c-2.5 0-4.9 .6-7 1.6c-5.3 2.6-9 8.1-9 14.4l0 57.6c0 6.3 3.7 11.8 9 14.4c2.1 1 4.5 1.6 7 1.6l57.6 0c2.5 0 4.9-.6 7-1.6c5.3-2.6 9-8.1 9-14.4l0-57.6c0-6.3-3.7-11.8-9-14.4c-2.1-1-4.5-1.6-7-1.6zm0 119.5l-57.6 0c-2.5 0-4.9 .6-7 1.6c-5.3 2.6-9 8.1-9 14.4l0 57.6c0 6.3 3.7 11.8 9 14.4c2.1 1 4.5 1.6 7 1.6l57.6 0c2.5 0 4.9-.6 7-1.6c5.3-2.6 9-8.1 9-14.4l0-57.6c0-6.3-3.7-11.8-9-14.4c-2.1-1-4.5-1.6-7-1.6zM374.4 390.4c-2.5 0-4.9 .6-7 1.6c-5.3 2.6-9 8.1-9 14.4l0 57.6c0 8.8 7.2 16 16 16l57.6 0c8.8 0 16-7.2 16-16l0-57.6c0-6.3-3.7-11.8-9-14.4c-2.1-1-4.5-1.6-7-1.6l-57.6 0zm16-181.3l0-25.6 25.6 0 0 25.6-25.6 0zm0 119.5l0-25.6 25.6 0 0 25.6-25.6 0zm0 119.5l0-25.6 25.6 0 0 25.6-25.6 0z"/></svg>

<svg xmlns="http://www.w3.org/2000/svg" viewBox="0 0 448 512"><!--! Font Awesome Pro 6.4.0 by @fontawesome - https://fontawesome.com License - https://fontawesome.com/license (Commercial License) Copyright 2023 Fonticons, Inc. --><path d="M32 89.6V64H57.6V89.6H32zm57.6 16V48c0-8.8-7.2-16-16-16H16C7.2 32 0 39.2 0 48v57.6c0 6.3 3.7 11.8 9 14.4c2.1 1 4.5 1.6 7 1.6H73.6c2.5 0 4.9-.6 7-1.6c5.3-2.6 9-8.1 9-14.4zm-16 45.9H16c-2.5 0-4.9 .6-7 1.6c-5.3 2.6-9 8.1-9 14.4v57.6c0 6.3 3.7 11.8 9 14.4c2.1 1 4.5 1.6 7 1.6H73.6c2.5 0 4.9-.6 7-1.6c5.3-2.6 9-8.1 9-14.4V167.5c0-6.3-3.7-11.8-9-14.4c-2.1-1-4.5-1.6-7-1.6zm0 119.5H16c-2.5 0-4.9 .6-7 1.6c-5.3 2.6-9 8.1-9 14.4v57.6c0 6.3 3.7 11.8 9 14.4c2.1 1 4.5 1.6 7 1.6H73.6c2.5 0 4.9-.6 7-1.6c5.3-2.6 9-8.1 9-14.4V286.9c0-6.3-3.7-11.8-9-14.4c-2.1-1-4.5-1.6-7-1.6zM16 390.4c-2.5 0-4.9 .6-7 1.6c-5.3 2.6-9 8.1-9 14.4V464c0 8.8 7.2 16 16 16H73.6c8.8 0 16-7.2 16-16V406.4c0-6.3-3.7-11.8-9-14.4c-2.1-1-4.5-1.6-7-1.6H16zM32 209.1V183.5H57.6v25.6H32zm0 119.5V302.9H57.6v25.6H32zM32 448V422.4H57.6V448H32zM151.5 89.6V64h25.6V89.6H151.5zm57.6 16V48c0-8.8-7.2-16-16-16H135.5c-8.8 0-16 7.2-16 16v57.6c0 6.3 3.7 11.8 9 14.4c2.1 1 4.5 1.6 7 1.6h57.6 0c2.5 0 4.9-.6 7-1.6c5.3-2.6 9-8.1 9-14.4zm-16 45.9h0H135.5c-2.5 0-4.9 .6-7 1.6c-5.3 2.6-9 8.1-9 14.4v57.6c0 6.3 3.7 11.8 9 14.4c2.1 1 4.5 1.6 7 1.6h57.6c2.5 0 4.9-.6 7-1.6c5.3-2.6 9-8.1 9-14.4V167.5c0-6.3-3.7-11.8-9-14.4c-2.1-1-4.5-1.6-7-1.6zm0 119.5H135.5c-2.5 0-4.9 .6-7 1.6c-5.3 2.6-9 8.1-9 14.4v57.6c0 6.3 3.7 11.8 9 14.4c2.1 1 4.5 1.6 7 1.6h57.6c2.5 0 4.9-.6 7-1.6c5.3-2.6 9-8.1 9-14.4V286.9c0-6.3-3.7-11.8-9-14.4c-2.1-1-4.5-1.6-7-1.6zM135.5 390.4c-2.5 0-4.9 .6-7 1.6c-5.3 2.6-9 8.1-9 14.4V464c0 8.8 7.2 16 16 16h57.6c8.8 0 16-7.2 16-16V406.4c0-6.3-3.7-11.8-9-14.4c-2.1-1-4.5-1.6-7-1.6H135.5zm16-181.3V183.5h25.6v25.6H151.5zm0 119.5V302.9h25.6v25.6H151.5zm0 119.5V422.4h25.6V448H151.5zM270.9 64h25.6V89.6H270.9V64zm48.6 56c5.3-2.6 9-8.1 9-14.4V48c0-8.8-7.2-16-16-16H254.9c-8.8 0-16 7.2-16 16v57.6c0 6.3 3.7 11.8 9 14.4c2.1 1 4.5 1.6 7 1.6h0 57.6 0c2.5 0 4.9-.6 7-1.6zm0 33.1c-2.1-1-4.5-1.6-7-1.6h0H254.9h0c-2.5 0-4.9 .6-7 1.6c-5.3 2.6-9 8.1-9 14.4v57.6c0 6.3 3.7 11.8 9 14.4c2.1 1 4.5 1.6 7 1.6h57.6c2.5 0 4.9-.6 7-1.6c5.3-2.6 9-8.1 9-14.4V167.5c0-6.3-3.7-11.8-9-14.4zm0 119.5c-2.1-1-4.5-1.6-7-1.6H254.9c-2.5 0-4.9 .6-7 1.6c-5.3 2.6-9 8.1-9 14.4v57.6c0 6.3 3.7 11.8 9 14.4c2.1 1 4.5 1.6 7 1.6h57.6c2.5 0 4.9-.6 7-1.6c5.3-2.6 9-8.1 9-14.4V286.9c0-6.3-3.7-11.8-9-14.4zm-7 117.8H254.9c-2.5 0-4.9 .6-7 1.6c-5.3 2.6-9 8.1-9 14.4V464c0 8.8 7.2 16 16 16h57.6c8.8 0 16-7.2 16-16V406.4c0-6.3-3.7-11.8-9-14.4c-2.1-1-4.5-1.6-7-1.6zM270.9 183.5h25.6v25.6H270.9V183.5zm0 119.5h25.6v25.6H270.9V302.9zm0 119.5h25.6V448H270.9V422.4zM390.4 89.6V64H416V89.6H390.4zm57.6 16V48c0-8.8-7.2-16-16-16H374.4c-8.8 0-16 7.2-16 16v57.6c0 6.3 3.7 11.8 9 14.4c2.1 1 4.5 1.6 7 1.6h0H432h0c2.5 0 4.9-.6 7-1.6c5.3-2.6 9-8.1 9-14.4zm-16 45.9h0H374.4h0c-2.5 0-4.9 .6-7 1.6c-5.3 2.6-9 8.1-9 14.4v57.6c0 6.3 3.7 11.8 9 14.4c2.1 1 4.5 1.6 7 1.6H432c2.5 0 4.9-.6 7-1.6c5.3-2.6 9-8.1 9-14.4V167.5c0-6.3-3.7-11.8-9-14.4c-2.1-1-4.5-1.6-7-1.6zm0 119.5H374.4c-2.5 0-4.9 .6-7 1.6c-5.3 2.6-9 8.1-9 14.4v57.6c0 6.3 3.7 11.8 9 14.4c2.1 1 4.5 1.6 7 1.6H432c2.5 0 4.9-.6 7-1.6c5.3-2.6 9-8.1 9-14.4V286.9c0-6.3-3.7-11.8-9-14.4c-2.1-1-4.5-1.6-7-1.6zM374.4 390.4c-2.5 0-4.9 .6-7 1.6c-5.3 2.6-9 8.1-9 14.4V464c0 8.8 7.2 16 16 16H432c8.8 0 16-7.2 16-16V406.4c0-6.3-3.7-11.8-9-14.4c-2.1-1-4.5-1.6-7-1.6H374.4zm16-181.3V183.5H416v25.6H390.4zm0 119.5V302.9H416v25.6H390.4zm0 119.5V422.4H416V448H390.4z"/></svg>
